flaticon/wild-west/bullets.svg

<svg xmlns="http://www.w3.org/2000/svg" width="32" height="32" viewBox="0 0 24 24">
    <path d="M4.964844 21.101562C4.964844 21.332031 4.78125 21.515625 4.550781 21.515625 4.324219 21.515625 4.136719 21.332031 4.136719 21.101562 4.136719 20.875 4.324219 20.691406 4.550781 20.691406 4.78125 20.691406 4.964844 20.875 4.964844 21.101562zM4.964844 19.449219C4.964844 19.675781 4.78125 19.863281 4.550781 19.863281 4.324219 19.863281 4.136719 19.675781 4.136719 19.449219 4.136719 19.21875 4.324219 19.035156 4.550781 19.035156 4.78125 19.035156 4.964844 19.21875 4.964844 19.449219zM4.964844 17.792969C4.964844 18.023438 4.78125 18.207031 4.550781 18.207031 4.324219 18.207031 4.136719 18.023438 4.136719 17.792969 4.136719 17.566406 4.324219 17.378906 4.550781 17.378906 4.78125 17.378906 4.964844 17.566406 4.964844 17.792969zM13.242188 21.101562C13.242188 21.332031 13.054688 21.515625 12.828125 21.515625 12.597656 21.515625 12.414062 21.332031 12.414062 21.101562 12.414062 20.875 12.597656 20.691406 12.828125 20.691406 13.054688 20.691406 13.242188 20.875 13.242188 21.101562zM13.242188 19.449219C13.242188 19.675781 13.054688 19.863281 12.828125 19.863281 12.597656 19.863281 12.414062 19.675781 12.414062 19.449219 12.414062 19.21875 12.597656 19.035156 12.828125 19.035156 13.054688 19.035156 13.242188 19.21875 13.242188 19.449219zM13.242188 17.792969C13.242188 18.023438 13.054688 18.207031 12.828125 18.207031 12.597656 18.207031 12.414062 18.023438 12.414062 17.792969 12.414062 17.566406 12.597656 17.378906 12.828125 17.378906 13.054688 17.378906 13.242188 17.566406 13.242188 17.792969zM17.378906 5.378906C17.378906 5.609375 17.195312 5.792969 16.964844 5.792969 16.738281 5.792969 16.550781 5.609375 16.550781 5.378906 16.550781 5.152344 16.738281 4.964844 16.964844 4.964844 17.195312 4.964844 17.378906 5.152344 17.378906 5.378906zM17.378906 3.722656C17.378906 3.953125 17.195312 4.136719 16.964844 4.136719 16.738281 4.136719 16.550781 3.953125 16.550781 3.722656 16.550781 3.496094 16.738281 3.308594 16.964844 3.308594 17.195312 3.308594 17.378906 3.496094 17.378906 3.722656zM9.101562 5.378906C9.101562 5.609375 8.917969 5.792969 8.691406 5.792969 8.460938 5.792969 8.277344 5.609375 8.277344 5.378906 8.277344 5.152344 8.460938 4.964844 8.691406 4.964844 8.917969 4.964844 9.101562 5.152344 9.101562 5.378906zM9.101562 3.722656C9.101562 3.953125 8.917969 4.136719 8.691406 4.136719 8.460938 4.136719 8.277344 3.953125 8.277344 3.722656 8.277344 3.496094 8.460938 3.308594 8.691406 3.308594 8.917969 3.308594 9.101562 3.496094 9.101562 3.722656zM21.515625 21.101562C21.515625 21.332031 21.332031 21.515625 21.101562 21.515625 20.875 21.515625 20.691406 21.332031 20.691406 21.101562 20.691406 20.875 20.875 20.691406 21.101562 20.691406 21.332031 20.691406 21.515625 20.875 21.515625 21.101562zM21.515625 19.449219C21.515625 19.675781 21.332031 19.863281 21.101562 19.863281 20.875 19.863281 20.691406 19.675781 20.691406 19.449219 20.691406 19.21875 20.875 19.035156 21.101562 19.035156 21.332031 19.035156 21.515625 19.21875 21.515625 19.449219zM21.515625 17.792969C21.515625 18.023438 21.332031 18.207031 21.101562 18.207031 20.875 18.207031 20.691406 18.023438 20.691406 17.792969 20.691406 17.566406 20.875 17.378906 21.101562 17.378906 21.332031 17.378906 21.515625 17.566406 21.515625 17.792969zM21.515625 17.792969"/>
    <path d="M7.035156 23.171875L6.621094 23.171875 6.621094 15.308594C6.621094 13.855469 5.425781 11.171875 3.722656 11.171875 2.023438 11.171875.828125 13.855469.828125 15.308594L.828125 23.171875.414062 23.171875C.183594 23.171875 0 23.359375 0 23.585938 0 23.816406.183594 24 .414062 24L7.035156 24C7.261719 24 7.449219 23.816406 7.449219 23.585938 7.449219 23.359375 7.261719 23.171875 7.035156 23.171875zM4.964844 16.964844C4.964844 17.195312 5.152344 17.378906 5.378906 17.378906 5.609375 17.378906 5.792969 17.195312 5.792969 16.964844L5.792969 18.621094C5.792969 18.390625 5.609375 18.207031 5.378906 18.207031 5.152344 18.207031 4.964844 18.390625 4.964844 18.621094 4.964844 18.847656 5.152344 19.035156 5.378906 19.035156 5.609375 19.035156 5.792969 18.847656 5.792969 18.621094L5.792969 20.277344C5.792969 20.046875 5.609375 19.863281 5.378906 19.863281 5.152344 19.863281 4.964844 20.046875 4.964844 20.277344 4.964844 20.503906 5.152344 20.691406 5.378906 20.691406 5.609375 20.691406 5.792969 20.503906 5.792969 20.277344L5.792969 21.515625 1.65625 21.515625 1.65625 16.964844zM1.65625 15.308594C1.65625 14.09375 2.675781 12 3.722656 12 4.769531 12 5.792969 14.09375 5.792969 15.308594L5.792969 16.136719 1.65625 16.136719zM1.65625 23.171875L1.65625 22.34375 5.792969 22.34375 5.792969 23.171875zM15.308594 23.171875L14.898438 23.171875 14.898438 15.308594C14.898438 13.855469 13.703125 11.171875 12 11.171875 10.296875 11.171875 9.101562 13.855469 9.101562 15.308594L9.101562 23.171875 8.691406 23.171875C8.460938 23.171875 8.277344 23.359375 8.277344 23.585938 8.277344 23.816406 8.460938 24 8.691406 24L15.308594 24C15.539062 24 15.722656 23.816406 15.722656 23.585938 15.722656 23.359375 15.539062 23.171875 15.308594 23.171875zM13.242188 16.964844C13.242188 17.195312 13.425781 17.378906 13.65625 17.378906 13.882812 17.378906 14.070312 17.195312 14.070312 16.964844L14.070312 18.621094C14.070312 18.390625 13.882812 18.207031 13.65625 18.207031 13.425781 18.207031 13.242188 18.390625 13.242188 18.621094 13.242188 18.847656 13.425781 19.035156 13.65625 19.035156 13.882812 19.035156 14.070312 18.847656 14.070312 18.621094L14.070312 20.277344C14.070312 20.046875 13.882812 19.863281 13.65625 19.863281 13.425781 19.863281 13.242188 20.046875 13.242188 20.277344 13.242188 20.503906 13.425781 20.691406 13.65625 20.691406 13.882812 20.691406 14.070312 20.503906 14.070312 20.277344L14.070312 21.515625 9.929688 21.515625 9.929688 16.964844zM9.929688 15.308594C9.929688 14.09375 10.953125 12 12 12 13.046875 12 14.070312 14.09375 14.070312 15.308594L14.070312 16.136719 9.929688 16.136719zM9.929688 23.171875L9.929688 22.34375 14.070312 22.34375 14.070312 23.171875zM23.585938 23.171875L23.171875 23.171875 23.171875 15.308594C23.171875 13.855469 21.976562 11.171875 20.277344 11.171875 18.574219 11.171875 17.378906 13.855469 17.378906 15.308594L17.378906 23.171875 16.964844 23.171875C16.738281 23.171875 16.550781 23.359375 16.550781 23.585938 16.550781 23.816406 16.738281 24 16.964844 24L23.585938 24C23.816406 24 24 23.816406 24 23.585938 24 23.359375 23.816406 23.171875 23.585938 23.171875zM21.515625 16.964844C21.515625 17.195312 21.703125 17.378906 21.929688 17.378906 22.160156 17.378906 22.34375 17.195312 22.34375 16.964844L22.34375 18.621094C22.34375 18.390625 22.160156 18.207031 21.929688 18.207031 21.703125 18.207031 21.515625 18.390625 21.515625 18.621094 21.515625 18.847656 21.703125 19.035156 21.929688 19.035156 22.160156 19.035156 22.34375 18.847656 22.34375 18.621094L22.34375 20.277344C22.34375 20.046875 22.160156 19.863281 21.929688 19.863281 21.703125 19.863281 21.515625 20.046875 21.515625 20.277344 21.515625 20.503906 21.703125 20.691406 21.929688 20.691406 22.160156 20.691406 22.34375 20.503906 22.34375 20.277344L22.34375 21.515625 18.207031 21.515625 18.207031 16.964844zM18.207031 15.308594C18.207031 14.09375 19.230469 12 20.277344 12 21.324219 12 22.34375 14.09375 22.34375 15.308594L22.34375 16.136719 18.207031 16.136719zM18.207031 23.171875L18.207031 22.34375 22.34375 22.34375 22.34375 23.171875zM10.757812 8.691406L10.757812.828125 11.171875.828125C11.402344.828125 11.585938.640625 11.585938.414062 11.585938.183594 11.402344 0 11.171875 0L4.550781 0C4.324219 0 4.136719.183594 4.136719.414062 4.136719.640625 4.324219.828125 4.550781.828125L4.964844.828125 4.964844 8.691406C4.964844 10.144531 6.160156 12.828125 7.863281 12.828125 9.5625 12.828125 10.757812 10.144531 10.757812 8.691406zM8.691406 6.621094C8.460938 6.621094 8.277344 6.804688 8.277344 7.035156L5.792969 7.035156 5.792969 2.484375 9.515625 2.484375C9.289062 2.484375 9.101562 2.667969 9.101562 2.898438 9.101562 3.125 9.289062 3.308594 9.515625 3.308594 9.746094 3.308594 9.929688 3.125 9.929688 2.898438L9.929688 4.550781C9.929688 4.324219 9.746094 4.136719 9.515625 4.136719 9.289062 4.136719 9.101562 4.324219 9.101562 4.550781 9.101562 4.78125 9.289062 4.964844 9.515625 4.964844 9.746094 4.964844 9.929688 4.78125 9.929688 4.550781L9.929688 6.207031C9.929688 5.976562 9.746094 5.792969 9.515625 5.792969 9.289062 5.792969 9.101562 5.976562 9.101562 6.207031 9.101562 6.433594 9.289062 6.621094 9.515625 6.621094 9.746094 6.621094 9.929688 6.4375 9.929688 6.207031L9.929688 7.035156 9.101562 7.035156C9.101562 6.804688 8.917969 6.621094 8.691406 6.621094zM9.929688 2.894531C9.929688 2.667969 9.746094 2.484375 9.515625 2.484375L9.929688 2.484375zM5.792969.828125L9.929688.828125 9.929688 1.65625 5.792969 1.65625zM7.863281 12C6.816406 12 5.792969 9.90625 5.792969 8.691406L5.792969 7.863281 9.929688 7.863281 9.929688 8.691406C9.929688 9.90625 8.910156 12 7.863281 12zM19.035156 8.691406L19.035156.828125 19.449219.828125C19.675781.828125 19.863281.640625 19.863281.414062 19.863281.183594 19.675781 0 19.449219 0L12.828125 0C12.597656 0 12.414062.183594 12.414062.414062 12.414062.640625 12.597656.828125 12.828125.828125L13.242188.828125 13.242188 8.691406C13.242188 10.144531 14.4375 12.828125 16.136719 12.828125 17.839844 12.828125 19.035156 10.144531 19.035156 8.691406zM16.964844 6.621094C16.738281 6.621094 16.550781 6.804688 16.550781 7.035156L14.070312 7.035156 14.070312 2.484375 17.792969 2.484375C17.566406 2.484375 17.378906 2.667969 17.378906 2.898438 17.378906 3.125 17.566406 3.308594 17.792969 3.308594 18.023438 3.308594 18.207031 3.125 18.207031 2.898438L18.207031 4.550781C18.207031 4.324219 18.023438 4.136719 17.792969 4.136719 17.566406 4.136719 17.378906 4.324219 17.378906 4.550781 17.378906 4.78125 17.566406 4.964844 17.792969 4.964844 18.023438 4.964844 18.207031 4.78125 18.207031 4.550781L18.207031 6.207031C18.207031 5.976562 18.023438 5.792969 17.792969 5.792969 17.566406 5.792969 17.378906 5.976562 17.378906 6.207031 17.378906 6.433594 17.566406 6.621094 17.792969 6.621094 18.023438 6.621094 18.207031 6.4375 18.207031 6.207031L18.207031 7.035156 17.378906 7.035156C17.378906 6.804688 17.195312 6.621094 16.964844 6.621094zM18.207031 2.894531C18.207031 2.667969 18.023438 2.484375 17.792969 2.484375L18.207031 2.484375zM14.070312.828125L18.207031.828125 18.207031 1.65625 14.070312 1.65625zM16.136719 12C15.089844 12 14.070312 9.90625 14.070312 8.691406L14.070312 7.863281 18.207031 7.863281 18.207031 8.691406C18.207031 9.90625 17.183594 12 16.136719 12zM16.136719 12"/>
</svg>

<svg xmlns="http://www.w3.org/2000/svg" width="32" height="32" viewBox="0 0 24 24">
    <path d="M4.965 21.102a.414.414 0 0 1-.828 0c0-.227.187-.41.414-.41.23 0 .414.183.414.41zm0 0M4.965 19.45a.414.414 0 1 1-.829-.001.414.414 0 0 1 .829 0zm0 0M4.965 17.793a.414.414 0 1 1-.828 0 .414.414 0 0 1 .828 0zm0 0M13.242 21.102a.414.414 0 0 1-.828 0c0-.227.184-.41.414-.41.227 0 .414.183.414.41zm0 0M13.242 19.45a.414.414 0 1 1-.828 0 .414.414 0 0 1 .828 0zm0 0M13.242 17.793a.414.414 0 1 1-.828 0 .414.414 0 0 1 .828 0zm0 0M17.379 5.379a.414.414 0 1 1-.828 0 .414.414 0 0 1 .828 0zm0 0M17.379 3.723a.414.414 0 1 1-.828 0 .414.414 0 0 1 .828 0zm0 0M9.102 5.379a.412.412 0 1 1-.824 0c0-.227.183-.414.413-.414.227 0 .41.187.41.414zm0 0M9.102 3.723a.412.412 0 1 1-.824 0c0-.227.183-.414.413-.414.227 0 .41.187.41.414zm0 0M21.516 21.102a.412.412 0 1 1-.824.004.412.412 0 0 1 .824-.004zm0 0M21.516 19.45a.414.414 0 0 1-.414.413.413.413 0 0 1-.41-.414.412.412 0 1 1 .824 0zm0 0M21.516 17.793a.412.412 0 1 1-.825 0c0-.227.184-.414.41-.414.231 0 .415.187.415.414zm0 0"/>
    <path d="M7.035 23.172h-.414v-7.863c0-1.454-1.195-4.137-2.898-4.137-1.7 0-2.895 2.683-2.895 4.137v7.863H.414a.414.414 0 0 0 0 .828h6.621a.414.414 0 0 0 0-.828zm-2.07-6.207a.414.414 0 0 0 .828 0v1.656a.414.414 0 1 0-.828 0 .414.414 0 0 0 .828 0v1.656a.414.414 0 1 0-.828 0 .414.414 0 0 0 .828 0v1.239H1.656v-4.551zm-3.309-1.656c0-1.215 1.02-3.309 2.067-3.309 1.047 0 2.07 2.094 2.07 3.309v.828H1.656zm0 7.863v-.828h4.137v.828zm0 0M15.309 23.172h-.41v-7.863c0-1.454-1.196-4.137-2.899-4.137s-2.898 2.683-2.898 4.137v7.863h-.41a.414.414 0 0 0 0 .828h6.617a.414.414 0 0 0 0-.828zm-2.067-6.207a.414.414 0 0 0 .828 0v1.656a.414.414 0 1 0-.828 0 .414.414 0 0 0 .828 0v1.656a.414.414 0 1 0-.828 0 .414.414 0 0 0 .828 0v1.239H9.93v-4.551zM9.93 15.309C9.93 14.094 10.953 12 12 12s2.07 2.094 2.07 3.309v.828H9.93zm0 7.863v-.828h4.14v.828zm0 0M23.586 23.172h-.414v-7.863c0-1.454-1.195-4.137-2.895-4.137-1.703 0-2.898 2.683-2.898 4.137v7.863h-.414a.414.414 0 0 0 0 .828h6.62a.414.414 0 0 0 0-.828zm-2.07-6.207a.414.414 0 0 0 .828 0v1.656a.414.414 0 1 0-.828 0 .414.414 0 0 0 .828 0v1.656a.414.414 0 1 0-.828 0 .414.414 0 0 0 .828 0v1.239h-4.137v-4.551zm-3.309-1.656c0-1.215 1.023-3.309 2.07-3.309s2.067 2.094 2.067 3.309v.828h-4.137zm0 7.863v-.828h4.137v.828zm0 0M10.758 8.691V.828h.414a.414.414 0 0 0 0-.828H4.55a.414.414 0 0 0 0 .828h.414v7.863c0 1.454 1.195 4.137 2.898 4.137 1.7 0 2.895-2.683 2.895-4.137zM8.69 6.621a.412.412 0 0 0-.414.414H5.793v-4.55h3.723a.414.414 0 0 0-.414.413c0 .227.187.41.414.41.23 0 .414-.183.414-.41v1.653a.414.414 0 1 0-.829 0 .414.414 0 0 0 .829 0v1.656a.414.414 0 1 0-.828 0 .414.414 0 0 0 .828 0v.828h-.828a.411.411 0 0 0-.41-.414zM9.93 2.895a.411.411 0 0 0-.414-.41h.414zM5.793.828H9.93v.828H5.793zM7.863 12c-1.047 0-2.07-2.094-2.07-3.309v-.828H9.93v.828C9.93 9.906 8.91 12 7.863 12zm0 0M19.035 8.691V.828h.414a.414.414 0 0 0 0-.828h-6.62a.414.414 0 0 0 0 .828h.413v7.863c0 1.454 1.195 4.137 2.895 4.137 1.703 0 2.898-2.683 2.898-4.137zm-2.07-2.07a.414.414 0 0 0-.414.414h-2.48v-4.55h3.722a.414.414 0 0 0-.414.413c0 .227.187.41.414.41.23 0 .414-.183.414-.41v1.653a.414.414 0 1 0-.829 0 .414.414 0 0 0 .829 0v1.656a.414.414 0 1 0-.828 0 .414.414 0 0 0 .828 0v.828h-.828a.412.412 0 0 0-.414-.414zm1.242-3.726a.411.411 0 0 0-.414-.41h.414zM14.07.828h4.137v.828H14.07zM16.137 12c-1.047 0-2.067-2.094-2.067-3.309v-.828h4.137v.828c0 1.215-1.023 3.309-2.07 3.309zm0 0"/>
</svg>
